src/lib/packages/icons/src/assets/line/home-roof-user.svg

<svg width="24" height="24" viewBox="0 0 24 24" fill="none" xmlns="http://www.w3.org/2000/svg">
<path d="M21.477 9.08502L14.0649 2.98907C12.8679 2.00707 11.133 2.00607 9.93598 2.98907L2.52399 9.08404C2.20499 9.34704 2.15796 9.81907 2.42096 10.1401C2.68596 10.4601 3.15699 10.5051 3.47699 10.2431L4.24994 9.60711V18.0001C4.24994 20.4181 5.58194 21.7501 7.99994 21.7501H15.9999C18.4179 21.7501 19.7499 20.4181 19.7499 18.0001V9.60711L20.5229 10.2431C20.6629 10.3581 20.8319 10.414 20.9999 10.414C21.2159 10.414 21.4309 10.321 21.5789 10.141C21.8429 9.82005 21.796 9.34802 21.477 9.08502ZM18.2499 18.0001C18.2499 19.5771 17.5769 20.2501 15.9999 20.2501H7.99994C6.42294 20.2501 5.74994 19.5771 5.74994 18.0001V8.37408L10.889 4.14911C11.532 3.62011 12.469 3.62011 13.112 4.14911L18.2509 8.37506V18.0001H18.2499ZM9.59992 11.1501C9.59992 12.4731 10.6769 13.5501 11.9999 13.5501C13.3229 13.5501 14.4 12.4731 14.4 11.1501C14.4 9.82708 13.3229 8.75006 11.9999 8.75006C10.6769 8.75006 9.59992 9.82708 9.59992 11.1501ZM12.9 11.1501C12.9 11.6461 12.4959 12.0501 11.9999 12.0501C11.5039 12.0501 11.0999 11.6461 11.0999 11.1501C11.0999 10.6541 11.5039 10.2501 11.9999 10.2501C12.4959 10.2501 12.9 10.6541 12.9 11.1501ZM12.6419 14.2501C14.6829 14.2501 15.7499 15.7321 15.7499 17.1971V17.5001C15.7499 17.9141 15.4139 18.2501 14.9999 18.2501C14.5859 18.2501 14.2499 17.9141 14.2499 17.5001V17.1971C14.2499 16.4771 13.7529 15.7501 12.6419 15.7501H11.359C10.248 15.7501 9.75092 16.4771 9.75092 17.1971V17.5001C9.75092 17.9141 9.41492 18.2501 9.00092 18.2501C8.58692 18.2501 8.25092 17.9141 8.25092 17.5001V17.1971C8.25092 15.7331 9.31795 14.2501 11.359 14.2501H12.6419Z" fill="currentColor"/>
</svg>

<svg xmlns="http://www.w3.org/2000/svg" width="24" height="24" fill="none"><path fill="currentColor" d="m21.477 9.085-7.412-6.096a3.26 3.26 0 0 0-4.129 0L2.524 9.084a.751.751 0 0 0 .953 1.16l.773-.637V18c0 2.418 1.332 3.75 3.75 3.75h8c2.418 0 3.75-1.332 3.75-3.75V9.607l.773.636a.749.749 0 0 0 1.056-.102.75.75 0 0 0-.102-1.056ZM18.25 18c0 1.577-.673 2.25-2.25 2.25H8c-1.577 0-2.25-.673-2.25-2.25V8.374l5.139-4.225a1.755 1.755 0 0 1 2.223 0l5.139 4.226V18h-.001ZM9.6 11.15c0 1.323 1.077 2.4 2.4 2.4s2.4-1.077 2.4-2.4-1.077-2.4-2.4-2.4a2.403 2.403 0 0 0-2.4 2.4Zm3.3 0c0 .496-.404.9-.9.9a.901.901 0 0 1-.9-.9c0-.496.404-.9.9-.9s.9.404.9.9Zm-.258 3.1c2.04 0 3.108 1.482 3.108 2.947v.303a.75.75 0 0 1-1.5 0v-.303c0-.72-.497-1.447-1.608-1.447h-1.283c-1.111 0-1.608.727-1.608 1.447v.303a.75.75 0 0 1-1.5 0v-.303c0-1.464 1.067-2.947 3.108-2.947h1.283Z"/></svg>
